mresponse/frontend/app/public/static/media/icons/user.svg

<?xml version="1.0" encoding="UTF-8"?>
<svg width="18px" height="20px" viewBox="0 0 18 20" version="1.1" xmlns="http://www.w3.org/2000/svg" xmlns:xlink="http://www.w3.org/1999/xlink">
    <!-- Generator: Sketch 51.2 (57519) - http://www.bohemiancoding.com/sketch -->
    <title>Group</title>
    <desc>Created with Sketch.</desc>
    <defs>
        <path d="M18,19 C18,19.5522847 17.5522847,20 17,20 C16.4477153,20 16,19.5522847 16,19 L16,17 C16,15.3431458 14.6568542,14 13,14 L5,14 C3.34314575,14 2,15.3431458 2,17 L2,19 C2,19.5522847 1.55228475,20 1,20 C0.44771525,20 0,19.5522847 0,19 L0,17 C0,14.2385763 2.23857625,12 5,12 L13,12 C15.7614237,12 18,14.2385763 18,17 L18,19 Z M9,10 C6.23857625,10 4,7.76142375 4,5 C4,2.23857625 6.23857625,1.33226763e-15 9,8.8817842e-16 C11.7614237,2.22044605e-15 14,2.23857625 14,5 C14,7.76142375 11.7614237,10 9,10 Z M9,8 C10.0717968,8.00000002 11.0621779,7.42820325 11.5980762,6.50000001 C12.1339746,5.57179678 12.1339746,4.42820322 11.5980762,3.49999999 C11.0621779,2.57179675 10.0717968,1.99999998 9,2 C7.34314577,2.00000002 6.00000004,3.34314577 6.00000004,5 C6.00000004,6.65685423 7.34314577,7.99999998 9,8 Z" id="path-1"></path>
    </defs>
    <g id="Page-1" stroke="none" stroke-width="1" fill="none" fill-rule="evenodd">
        <g id="profile" transform="translate(-19.000000, -18.000000)">
            <g id="Clipped" transform="translate(1.000000, 1.000000)">
                <g id="Group" transform="translate(18.000000, 17.000000)">
                    <g id="c-link" fill="#000000" fill-rule="nonzero">
                        <path d="M18,19 C18,19.5522847 17.5522847,20 17,20 C16.4477153,20 16,19.5522847 16,19 L16,17 C16,15.3431458 14.6568542,14 13,14 L5,14 C3.34314575,14 2,15.3431458 2,17 L2,19 C2,19.5522847 1.55228475,20 1,20 C0.44771525,20 0,19.5522847 0,19 L0,17 C0,14.2385763 2.23857625,12 5,12 L13,12 C15.7614237,12 18,14.2385763 18,17 L18,19 Z M9,10 C6.23857625,10 4,7.76142375 4,5 C4,2.23857625 6.23857625,1.33226763e-15 9,8.8817842e-16 C11.7614237,2.22044605e-15 14,2.23857625 14,5 C14,7.76142375 11.7614237,10 9,10 Z M9,8 C10.0717968,8.00000002 11.0621779,7.42820325 11.5980762,6.50000001 C12.1339746,5.57179678 12.1339746,4.42820322 11.5980762,3.49999999 C11.0621779,2.57179675 10.0717968,1.99999998 9,2 C7.34314577,2.00000002 6.00000004,3.34314577 6.00000004,5 C6.00000004,6.65685423 7.34314577,7.99999998 9,8 Z" id="c"></path>
                    </g>
                    <g id="Clipped">
                        <mask id="mask-2" fill="white">
                            <use xlink:href="#path-1"></use>
                        </mask>
                        <g id="c"></g>
                        <polygon id="Shape" fill="#FFFFFF" fill-rule="nonzero" mask="url(#mask-2)" points="-3 -2 21 -2 21 22 -3 22"></polygon>
                    </g>
                </g>
            </g>
        </g>
    </g>
</svg>

<svg width="18" height="20" xmlns="http://www.w3.org/2000/svg" xmlns:xlink="http://www.w3.org/1999/xlink"><defs><path d="M18 19a1 1 0 01-2 0v-2a3 3 0 00-3-3H5a3 3 0 00-3 3v2a1 1 0 01-2 0v-2a5 5 0 015-5h8a5 5 0 015 5v2zm-9-9A5 5 0 119 0a5 5 0 010 10zm0-2a3 3 0 100-6 3 3 0 000 6z" id="a"/></defs><g fill="none" fill-rule="evenodd"><path d="M18 19a1 1 0 01-2 0v-2a3 3 0 00-3-3H5a3 3 0 00-3 3v2a1 1 0 01-2 0v-2a5 5 0 015-5h8a5 5 0 015 5v2zm-9-9A5 5 0 119 0a5 5 0 010 10zm0-2a3 3 0 100-6 3 3 0 000 6z" fill="#000" fill-rule="nonzero"/><g><mask id="b" fill="#fff"><use xlink:href="#a"/></mask><path fill="#FFF" fill-rule="nonzero" mask="url(#b)" d="M-3-2h24v24H-3z"/></g></g></svg>
